src/assets/svg/4-news/4-min-save.svg

<svg width="18" height="21" viewBox="0 0 18 21" fill="none" xmlns="http://www.w3.org/2000/svg">
<path d="M3.72656 18.375V3.82812C3.72656 3.47812 3.83837 3.17188 4.06198 2.90938C4.28559 2.64688 4.54647 2.51562 4.84462 2.51562H13.0437C13.3418 2.51562 13.6027 2.64688 13.8263 2.90938C14.0499 3.17188 14.1617 3.47812 14.1617 3.82812V18.375L8.94416 15.75L3.72656 18.375ZM4.84462 16.3844L8.94416 14.35L13.0437 16.3844V3.82812H4.84462V16.3844ZM4.84462 3.82812H13.0437H8.94416H4.84462Z" fill="#E9E8E8" fill-opacity="0.8"/>
</svg>

<svg width="18" height="21" fill="none" xmlns="http://www.w3.org/2000/svg"><path d="M3.727 18.375V3.828c0-.35.111-.656.335-.919.224-.262.484-.393.783-.393h8.199c.298 0 .559.13.782.393.224.263.336.57.336.92v14.546L8.944 15.75l-5.217 2.625Zm1.118-1.99 4.1-2.035 4.099 2.034V3.828h-8.2v12.556Zm0-12.557h8.199-8.2Z" fill="#E9E8E8" fill-opacity=".8"/></svg>
